X: 24
T: VALSE A BOUFFARD (en DO)
M: 3/4
L: 1/8
Q:1/4=60
K:C
E|:CEF GAB|cBA G3|FGF EGE|1DE/2F/2E/2D/2 ECE:|2DE/2F/2E/2D/2 C2G|!
|:E/2C/2E/2G/2E/2G/2|FDG E/2C/2E/2G/2E/2G/2|FDG E/2C/2E/2G/2E/2G/2|BAG F
ED|1ECG:|2C3|
